assets/fc/fc-filing-cabinet.svg

<svg xmlns="http://www.w3.org/2000/svg" width="100%" height="100%" viewBox="0 0 48 48"><path fill="#263238" d="M12 44h4v2h-4zM32 44h4v2h-4z"/><path fill="#607D8B" d="M8 41V7c0-2.2 1.8-4 4-4h24c2.2 0 4 1.8 4 4v34c0 2.2-1.8 4-4 4H12c-2.2 0-4-1.8-4-4z"/><path fill="#B0BEC5" d="M12 17V8c0-.6.4-1 1-1h22c.6 0 1 .4 1 1v9H12zM12 19h24v10H12zM12 40v-9h24v9c0 .6-.4 1-1 1H13c-.6 0-1-.4-1-1z"/><path fill="#546E7A" d="M20 11h8v2h-8zM20 23h8v2h-8zM20 35h8v2h-8z"/></svg>

<svg xmlns="http://www.w3.org/2000/svg" width="100%" height="100%" viewBox="0 0 48 48"><path fill="#263238" d="M12 44H16V46H12zM32 44H36V46H32z"/><path fill="#607D8B" d="M8,41V7c0-2.2,1.8-4,4-4h24c2.2,0,4,1.8,4,4v34c0,2.2-1.8,4-4,4H12C9.8,45,8,43.2,8,41z"/><path fill="#B0BEC5" d="M12 17V8c0-.6.4-1 1-1h22c.6 0 1 .4 1 1v9H12zM12 19H36V29H12zM12 40v-9h24v9c0 .6-.4 1-1 1H13C12.4 41 12 40.6 12 40z"/><path fill="#546E7A" d="M20 11H28V13H20zM20 23H28V25H20zM20 35H28V37H20z"/></svg>
